symbolic/24x24/apps/com.github.babluboy.nutty.svg

<svg xmlns="http://www.w3.org/2000/svg" width="24" height="24" version="1.1">
 <g transform="translate(0,-1098.5197)">
  <path style="opacity:0.2" d="m 12,1101.951 -9,3.375 v 0.6933 9.5801 l 8.910156,5.1113 L 21,1115.6053 v -10.2793 z m -1,2.5117 v 4.7519 l -4.7539062,-2.9707 z m 2,0 4.751953,1.7832 L 13,1109.2146 Z m -8,3.3594 4.9589844,3.1015 L 5,1113.4021 Z m 14,0 v 5.58 l -4.958984,-2.4785 z m -8,4.8164 v 5.2441 l -4.8847656,-2.8027 z m 2,0 4.865234,2.4316 L 13,1117.8025 Z"/>
  <path style="fill:none;stroke:#364451;stroke-width:1.99999905" d="m 12,1102.5197 v 8"/>
  <path style="fill:none;stroke:#364451;stroke-width:1.99999905" d="m 4,1114.5197 8,-4 8,4"/>
  <path style="fill:none;stroke:#7e8f99;stroke-width:1.99999905" d="m 4,1105.5197 8,5 8,-5"/>
  <path style="fill:none;stroke:#7e8f99;stroke-width:1.99999905" d="m 12,1118.5197 v -8"/>
  <path style="fill:none;stroke:#53626c;stroke-width:2" d="m 4,1105.5197 8,-3 8,3 v 9 l -8.084471,4.5411 L 4,1114.5197 Z"/>
  <path style="opacity:0.2" d="m 12,1100.0197 a 3,3 0 0 0 -3,3 3,3 0 0 0 3,3 3,3 0 0 0 3,-3 3,3 0 0 0 -3,-3 z m 7.929688,3 A 2.9999907,2.9999907 0 0 0 18.5,1103.422 a 2.9999907,2.9999907 0 0 0 -1.097656,4.0977 2.9999907,2.9999907 0 0 0 4.097656,1.0977 2.9999907,2.9999907 0 0 0 1.097656,-4.0977 2.9999907,2.9999907 0 0 0 -2.667968,-1.5 z m -16.070313,0 a 2.9999316,2.9999316 0 0 0 -2.4570312,1.5 A 2.9999316,2.9999316 0 0 0 2.5,1108.6174 2.9999316,2.9999316 0 0 0 6.5976562,1107.5197 2.9999316,2.9999316 0 0 0 5.5,1103.422 2.9999316,2.9999316 0 0 0 3.859375,1103.0236 Z m 8.140625,5 a 3,3 0 0 0 -3,3 3,3 0 0 0 3,3 3,3 0 0 0 3,-3 3,3 0 0 0 -3,-3 z m -8.0703125,4 A 3,3 0 0 0 2.5,1112.422 3,3 0 0 0 1.4023438,1116.5197 3,3 0 0 0 5.5,1117.6174 a 3,3 0 0 0 1.0976562,-4.0977 3,3 0 0 0 -2.6679687,-1.5 z m 15.9296875,0 a 2.9999907,2.9999907 0 0 0 -2.457031,1.4961 2.9999907,2.9999907 0 0 0 1.097656,4.0977 2.9999907,2.9999907 0 0 0 4.097656,-1.0977 2.9999907,2.9999907 0 0 0 -1.097656,-4.0938 2.9999907,2.9999907 0 0 0 -1.640625,-0.3984 z m -7.859375,4 a 3,3 0 0 0 -3,3 3,3 0 0 0 3,3 3,3 0 0 0 3,-3 3,3 0 0 0 -3,-3 z"/>
  <circle style="fill:#9bdb4d" cx="12" cy="1102.52" r="3"/>
  <circle style="fill:#9bdb4d" cx="12" cy="1118.52" r="3"/>
  <circle style="fill:#9bdb4d" cx="967.408" cy="535.439" r="3" transform="rotate(59.999999)"/>
  <circle style="fill:#9bdb4d" cx="967.202" cy="553.796" r="3" transform="rotate(59.999999)"/>
  <circle style="fill:#9bdb4d" cx="955.202" cy="-574.58" r="3" transform="rotate(120)"/>
  <circle style="fill:#9bdb4d" cx="955.408" cy="-556.224" r="3" transform="rotate(120)"/>
  <circle style="fill:#9bdb4d" cx="12" cy="1110.52" r="3"/>
  <path style="opacity:0.2;fill:#ffffff" transform="translate(0,1098.5197)" d="M 12 1 A 3 3 0 0 0 9 4 A 3 3 0 0 0 9.0136719 4.2441406 A 3 3 0 0 1 12 1.5 A 3 3 0 0 1 14.986328 4.2558594 A 3 3 0 0 0 15 4 A 3 3 0 0 0 12 1 z M 19.929688 4 A 2.9999907 2.9999907 0 0 0 18.5 4.4023438 A 2.9999907 2.9999907 0 0 0 17.013672 7.2558594 A 2.9999907 2.9999907 0 0 1 18.5 4.9023438 A 2.9999907 2.9999907 0 0 1 19.929688 4.5 A 2.9999907 2.9999907 0 0 1 22.597656 6 A 2.9999907 2.9999907 0 0 1 22.986328 7.2441406 A 2.9999907 2.9999907 0 0 0 22.597656 5.5 A 2.9999907 2.9999907 0 0 0 19.929688 4 z M 4.0703125 4.0019531 A 2.9999316 2.9999316 0 0 0 3.859375 4.0039062 A 2.9999316 2.9999316 0 0 0 1.4023438 5.5 A 2.9999316 2.9999316 0 0 0 1.0136719 7.2617188 A 2.9999316 2.9999316 0 0 1 1.4023438 6 A 2.9999316 2.9999316 0 0 1 3.859375 4.5 L 3.859375 4.5039062 A 2.9999316 2.9999316 0 0 1 5.5 4.9023438 A 2.9999316 2.9999316 0 0 1 6.9863281 7.2382812 A 2.9999316 2.9999316 0 0 0 5.5 4.4023438 A 2.9999316 2.9999316 0 0 0 4.0703125 4.0019531 z M 12 9 A 3 3 0 0 0 9 12 A 3 3 0 0 0 9.0136719 12.244141 A 3 3 0 0 1 12 9.5 A 3 3 0 0 1 14.986328 12.255859 A 3 3 0 0 0 15 12 A 3 3 0 0 0 12 9 z M 3.9296875 13 A 3 3 0 0 0 2.5 13.402344 A 3 3 0 0 0 1.0136719 16.255859 A 3 3 0 0 1 2.5 13.902344 A 3 3 0 0 1 3.9296875 13.5 A 3 3 0 0 1 6.5976562 15 A 3 3 0 0 1 6.9863281 16.244141 A 3 3 0 0 0 6.5976562 14.5 A 3 3 0 0 0 3.9296875 13 z M 20.070312 13.001953 A 2.9999907 2.9999907 0 0 0 19.859375 13.003906 A 2.9999907 2.9999907 0 0 0 17.402344 14.5 A 2.9999907 2.9999907 0 0 0 17.013672 16.261719 A 2.9999907 2.9999907 0 0 1 17.402344 14.996094 A 2.9999907 2.9999907 0 0 1 19.859375 13.5 L 19.859375 13.503906 A 2.9999907 2.9999907 0 0 1 21.5 13.902344 A 2.9999907 2.9999907 0 0 1 22.986328 16.244141 A 2.9999907 2.9999907 0 0 0 21.5 13.402344 A 2.9999907 2.9999907 0 0 0 20.070312 13.001953 z M 12 17 A 3 3 0 0 0 9 20 A 3 3 0 0 0 9.0136719 20.244141 A 3 3 0 0 1 12 17.5 A 3 3 0 0 1 14.986328 20.255859 A 3 3 0 0 0 15 20 A 3 3 0 0 0 12 17 z"/>
 </g>
</svg>

<svg xmlns="http://www.w3.org/2000/svg" width="24" height="24"><g transform="translate(0 -1098.52)"><path style="opacity:.2" d="m12 1101.951-9 3.375v10.273l8.91 5.112 9.09-5.106v-10.279zm-1 2.512v4.752l-4.754-2.971zm2 0 4.752 1.783-4.752 2.969zm-8 3.36 4.959 3.1-4.959 2.48zm14 0v5.58l-4.959-2.48zm-8 4.815v5.245l-4.885-2.803zm2 0 4.865 2.432-4.865 2.733z"/><path style="fill:none;stroke:#364451;stroke-width:1.99999905" d="M12 1102.52v8M4 1114.52l8-4 8 4"/><path style="fill:none;stroke:#7e8f99;stroke-width:1.99999905" d="m4 1105.52 8 5 8-5M12 1118.52v-8"/><path style="fill:none;stroke:#53626c;stroke-width:2" d="m4 1105.52 8-3 8 3v9l-8.084 4.54L4 1114.52z"/><path style="opacity:.2" d="M12 1100.02a3 3 0 0 0-3 3 3 3 0 0 0 3 3 3 3 0 0 0 3-3 3 3 0 0 0-3-3zm7.93 3a3 3 0 0 0-1.43.402 3 3 0 0 0-1.098 4.098 3 3 0 0 0 4.098 1.097 3 3 0 0 0 1.098-4.097 3 3 0 0 0-2.668-1.5zm-16.07 0a3 3 0 0 0-2.458 1.5 3 3 0 0 0 1.098 4.097 3 3 0 0 0 4.098-1.097 3 3 0 0 0-1.098-4.098 3 3 0 0 0-1.64-.398zm8.14 5a3 3 0 0 0-3 3 3 3 0 0 0 3 3 3 3 0 0 0 3-3 3 3 0 0 0-3-3zm-8.07 4a3 3 0 0 0-1.43.402 3 3 0 0 0-1.098 4.098 3 3 0 0 0 4.098 1.097 3 3 0 0 0 1.098-4.097 3 3 0 0 0-2.668-1.5zm15.93 0a3 3 0 0 0-2.458 1.496 3 3 0 0 0 1.098 4.098 3 3 0 0 0 4.098-1.098 3 3 0 0 0-1.098-4.094 3 3 0 0 0-1.64-.398zm-7.86 4a3 3 0 0 0-3 3 3 3 0 0 0 3 3 3 3 0 0 0 3-3 3 3 0 0 0-3-3z"/><circle style="fill:#9bdb4d" cx="12" cy="1102.52" r="3"/><circle style="fill:#9bdb4d" cx="12" cy="1118.52" r="3"/><circle style="fill:#9bdb4d" cx="967.408" cy="535.439" r="3" transform="rotate(60)"/><circle style="fill:#9bdb4d" cx="967.202" cy="553.796" r="3" transform="rotate(60)"/><circle style="fill:#9bdb4d" cx="955.202" cy="-574.58" r="3" transform="rotate(120)"/><circle style="fill:#9bdb4d" cx="955.408" cy="-556.224" r="3" transform="rotate(120)"/><circle style="fill:#9bdb4d" cx="12" cy="1110.52" r="3"/><path style="opacity:.2;fill:#fff" transform="translate(0 1098.52)" d="M12 1a3 3 0 0 0-3 3 3 3 0 0 0 .014.244A3 3 0 0 1 12 1.5a3 3 0 0 1 2.986 2.756A3 3 0 0 0 15 4a3 3 0 0 0-3-3zm7.93 3a3 3 0 0 0-1.43.402 3 3 0 0 0-1.486 2.854A3 3 0 0 1 18.5 4.902a3 3 0 0 1 1.43-.402A3 3 0 0 1 22.598 6a3 3 0 0 1 .388 1.244 3 3 0 0 0-.388-1.744A3 3 0 0 0 19.93 4zm-15.86.002a3 3 0 0 0-.21.002A3 3 0 0 0 1.401 5.5a3 3 0 0 0-.388 1.762A3 3 0 0 1 1.402 6 3 3 0 0 1 3.86 4.5v.004a3 3 0 0 1 1.641.398 3 3 0 0 1 1.486 2.336A3 3 0 0 0 5.5 4.402a3 3 0 0 0-1.43-.4zM12 9a3 3 0 0 0-3 3 3 3 0 0 0 .014.244A3 3 0 0 1 12 9.5a3 3 0 0 1 2.986 2.756A3 3 0 0 0 15 12a3 3 0 0 0-3-3zm-8.07 4a3 3 0 0 0-1.43.402 3 3 0 0 0-1.486 2.854A3 3 0 0 1 2.5 13.902a3 3 0 0 1 1.43-.402A3 3 0 0 1 6.598 15a3 3 0 0 1 .388 1.244 3 3 0 0 0-.388-1.744A3 3 0 0 0 3.93 13zm16.14.002a3 3 0 0 0-.21.002 3 3 0 0 0-2.458 1.496 3 3 0 0 0-.388 1.762 3 3 0 0 1 .388-1.266A3 3 0 0 1 19.86 13.5v.004a3 3 0 0 1 1.641.398 3 3 0 0 1 1.486 2.342 3 3 0 0 0-1.486-2.842 3 3 0 0 0-1.43-.4zM12 17a3 3 0 0 0-3 3 3 3 0 0 0 .014.244A3 3 0 0 1 12 17.5a3 3 0 0 1 2.986 2.756A3 3 0 0 0 15 20a3 3 0 0 0-3-3z"/></g></svg>
